src/assets/icons/file.svg

<svg width="24" height="24" viewBox="0 0 24 24" fill="none" xmlns="http://www.w3.org/2000/svg">
<path fill-rule="evenodd" clip-rule="evenodd" d="M22 10.6257L20.2375 9.38213H20.2195V6.27634H20.2185L14.5702 1L14.5677 1.00274L3.77593 1.00256V9.38982L2 10.6709V17.6889H3.77593V22.9998L20.2196 23V17.6886H21.9956V15.4976L22 10.6257ZM13.7754 1.75888L13.77 7.02559L19.4275 7.03175V10.6296H4.56712V1.75869L13.7754 1.75888ZM19.4274 22.2435H4.56699V17.6886H19.4274V22.2435Z" fill="#0E286A"/>
<path d="M6.88181 15.8853C6.84445 15.8853 6.81559 15.8758 6.79521 15.8569C6.77484 15.8348 6.76465 15.8079 6.76465 15.7763V12.6802C6.76465 12.6454 6.77484 12.6186 6.79521 12.5996C6.81559 12.5775 6.84445 12.5664 6.88181 12.5664H8.96015C8.99751 12.5664 9.02637 12.5775 9.04675 12.5996C9.06712 12.6186 9.07731 12.6454 9.07731 12.6802V12.8699C9.07731 12.9046 9.06712 12.9315 9.04675 12.9505C9.02637 12.9694 8.99751 12.9789 8.96015 12.9789H7.25876V14.0836H8.85827C8.89563 14.0836 8.92449 14.0947 8.94487 14.1168C8.96524 14.1358 8.97543 14.1626 8.97543 14.1974V14.3871C8.97543 14.4187 8.96524 14.4455 8.94487 14.4677C8.92449 14.4866 8.89563 14.4961 8.85827 14.4961H7.25876V15.7763C7.25876 15.8079 7.24688 15.8348 7.22311 15.8569C7.20273 15.8758 7.17386 15.8853 7.13651 15.8853H6.88181Z" fill="white"/>
<path d="M9.85661 15.8853C9.81925 15.8853 9.79039 15.8758 9.77001 15.8569C9.74964 15.8348 9.73945 15.8079 9.73945 15.7763V12.6755C9.73945 12.6438 9.74964 12.6186 9.77001 12.5996C9.79039 12.5775 9.81925 12.5664 9.85661 12.5664H10.1266C10.1605 12.5664 10.1877 12.5775 10.2081 12.5996C10.2319 12.6186 10.2438 12.6438 10.2438 12.6755V15.7763C10.2438 15.8079 10.2319 15.8348 10.2081 15.8569C10.1877 15.8758 10.1605 15.8853 10.1266 15.8853H9.85661Z" fill="white"/>
<path d="M11.2495 15.8853C11.2121 15.8853 11.1833 15.8758 11.1629 15.8569C11.1425 15.8348 11.1323 15.8079 11.1323 15.7763V12.6755C11.1323 12.6438 11.1425 12.6186 11.1629 12.5996C11.1833 12.5775 11.2121 12.5664 11.2495 12.5664H11.5195C11.5534 12.5664 11.5806 12.5775 11.601 12.5996C11.6214 12.6186 11.6315 12.6438 11.6315 12.6755V15.4728H13.3278C13.3652 15.4728 13.3941 15.4839 13.4144 15.506C13.4348 15.525 13.445 15.5519 13.445 15.5866V15.7763C13.445 15.8079 13.4348 15.8348 13.4144 15.8569C13.3941 15.8758 13.3652 15.8853 13.3278 15.8853H11.2495Z" fill="white"/>
<path d="M14.1198 15.8853C14.0825 15.8853 14.0536 15.8758 14.0332 15.8569C14.0129 15.8348 14.0027 15.8079 14.0027 15.7763V12.6802C14.0027 12.6454 14.0129 12.6186 14.0332 12.5996C14.0536 12.5775 14.0825 12.5664 14.1198 12.5664H16.2236C16.261 12.5664 16.2899 12.5775 16.3102 12.5996C16.3306 12.6186 16.3408 12.6454 16.3408 12.6802V12.8604C16.3408 12.8951 16.3306 12.922 16.3102 12.941C16.2899 12.9599 16.261 12.9694 16.2236 12.9694H14.4917V14.0078H16.1116C16.1489 14.0078 16.1778 14.0188 16.1982 14.041C16.2185 14.0599 16.2287 14.0868 16.2287 14.1216V14.297C16.2287 14.3286 16.2185 14.3555 16.1982 14.3776C16.1778 14.3966 16.1489 14.406 16.1116 14.406H14.4917V15.4823H16.2644C16.3017 15.4823 16.3306 15.4918 16.351 15.5108C16.3714 15.5297 16.3815 15.5566 16.3815 15.5914V15.7763C16.3815 15.8079 16.3714 15.8348 16.351 15.8569C16.3306 15.8758 16.3017 15.8853 16.2644 15.8853H14.1198Z" fill="white"/>
</svg>

<svg xmlns="http://www.w3.org/2000/svg" width="24" height="24" fill="none" viewBox="0 0 24 24">
  <path fill="#0E286A" fill-rule="evenodd" d="m22 10.626-1.762-1.244h-.018V6.276h-.002L14.57 1l-.002.003H3.776V9.39L2 10.67v7.019h1.776v5.31L20.22 23v-5.311h1.776v-2.191L22 10.626Zm-8.225-8.867-.005 5.267 5.657.006v3.598H4.567V1.759h9.208Zm5.652 20.485H4.567v-4.555h14.86v4.555Z" clip-rule="evenodd"/>
  <path fill="#fff" d="M6.882 15.885a.123.123 0 0 1-.087-.028.115.115 0 0 1-.03-.08V12.68c0-.035.01-.061.03-.08a.112.112 0 0 1 .087-.034H8.96c.038 0 .066.011.087.034.02.019.03.045.03.08v.19c0 .035-.01.062-.03.08a.123.123 0 0 1-.087.029H7.26v1.105h1.6c.037 0 .065.01.086.033.02.019.03.046.03.08v.19c0 .032-.01.058-.03.08a.123.123 0 0 1-.087.03h-1.6v1.28a.106.106 0 0 1-.035.08.123.123 0 0 1-.086.028h-.255ZM9.857 15.885a.123.123 0 0 1-.087-.028.115.115 0 0 1-.03-.08v-3.101c0-.032.01-.057.03-.076a.112.112 0 0 1 .087-.034h.27c.034 0 .06.011.081.034a.092.092 0 0 1 .036.075v3.101a.106.106 0 0 1-.036.08.115.115 0 0 1-.081.03h-.27ZM11.25 15.885a.123.123 0 0 1-.087-.028.115.115 0 0 1-.03-.08v-3.101c0-.032.01-.057.03-.076a.112.112 0 0 1 .086-.034h.27c.034 0 .062.011.082.034.02.019.03.044.03.075v2.798h1.697c.037 0 .066.01.086.033.02.019.031.046.031.08v.19c0 .032-.01.059-.03.08a.122.122 0 0 1-.087.03h-2.079ZM14.12 15.885a.123.123 0 0 1-.087-.028.115.115 0 0 1-.03-.08V12.68c0-.035.01-.061.03-.08a.112.112 0 0 1 .087-.034h2.104c.037 0 .066.011.086.034.02.019.03.045.03.08v.18c0 .035-.01.062-.03.081a.122.122 0 0 1-.086.028h-1.732v1.039h1.62c.037 0 .066.01.086.033.02.019.03.046.03.08v.176c0 .032-.01.058-.03.08-.02.02-.05.029-.086.029h-1.62v1.076h1.772c.038 0 .067.01.087.029.02.019.03.046.03.08v.185c0 .032-.01.059-.03.08a.123.123 0 0 1-.087.03H14.12Z"/>
</svg>
